
d1 $

d2 $ slow 4 $ midinote "<"[71 74 71 74]", "[66 69 66 69]", "[71 74 71 74]">" 
  # s "superpiano"
  # amp 0.7

d3 $ s "[east:6(1,7), east:1(3,7), east:3(2,7), east:5(8,14)]"
  # amp 0.3

d4 $ jux rev $ n "<bf'six9(4,7) ef'minor7(4,7) af'minor7flat5(4,7)>"
  # s "superpiano"
