Hush: crtl + option + h

setcps (100/60/4)

d1 $ s "[east:6(2,4), east:8(1,4), east:0(4, 4)]"

d2 $ n "<c'maj [f'maj c'maj] [g'maj7 c'maj] [g'maj7 c'maj]>"
    # s "superpiano"

d3 $ n "<[[g g] c c c] [c f a a] [g [b b] f g] [g c c ~]>"
    # s "superpiano"

d2 $ n "<c'maj f'maj g'dom7 c'maj>"
    # s "superpiano"

ChatGPT 给出的一个随机和声进行： | Cmaj7 | Am7 | Dm7 | G7 |

d2 $ n "<c'maj7 a'minor7 g'minor7 c'dom7>"
    # s "superpiano"

d3 $ n "<[c e g b] [a c e g] [d f a c] [g b d f]>"
    # s "superpiano"

d3 $ n "<[e e e [g|b|c]] [c c c e] [f [d|a|c] [d|a|c] [d|a|c]] [[d f] <b g>]>"
    # s "supersaw"

d3 $ degradeBy 0.3 $ n "<[c|e|g|b](8,14) [a|c|e|g](6,14) [d|f|a|c](9,14) [[g|b|d|f|~](4,14)]>"
    # s "supersaw"