d1 $ n "<c'major7 f'major7 g'major a'minor>"
    # s "superpiano"
    # delay wet
    # phaserrate 0.5
    # phaserdepth 0.2
    # dry 0.4
    

d2 $ n "[0 2|[2 4] 4 7|[7 7] [4|2|4 2]]"
    # s "supersaw"
    # attack 0.3
    # amp 0.2

d3 $ s "[east:6(1,5), east:3(3,10,1)]"
    # room 0.3
    # amp 0.2