hush

-- in supercollider
-- MIDIClient.init;
-- ~midiOut = MIDIOut.newByName("SEQTRAK", "SEQTRAK"); 
-- ~dirt.soundLibrary.addMIDI(\mydevice, ~midiOut);

setcps (120/60/4)

d7 $ n "<[[9 _ _ 11] [12 17]] [8 [16 14] 12 9] [5 [14 12] 11 5] [4 [16 14] 12 [9 8]]>" 
   # s "mydevice"  
   # midichan 7

d9 $ n "<[[9 _ _ 11] [12 17]] [8 [16 14] 12 9] [5 [14 12] 11 5] [4 [16 14] 12 [9 8]]>" 
   # s "mydevice"  
   # midichan 8

d10 $ n "<[[9 _ _ 11] [12 17]] [8 [16 14] 12 9] [5 [14 12] 11 5] [4 [16 14] 12 [9 8]]>" 
   # s "mydevice"  
   # midichan 9

d1 $ n "1 1 [1 1] 1" 
   # s "mydevice"  
   # midichan 1

d2 $ n "1 1" 
   # s "mydevice"  
   # midichan 2

d3 $ n "1" 
   # s "mydevice"  
   # midichan 3

d4 $ n "~ 1" 
   # s "mydevice"  
   # midichan 4